X:1
T:[ID 1-141b][ID 2-11a](Trio)
T:[ID 1-141b][ID 2-11a](Trio)
T:Bezeichnung standardisiert: Menuett Menuet 5
T:Urheber unbekannt Erstbeleg: vor 1767 (Datum in der schriftlichen Quelle) Datum in der hier transkribierten schriftlichen Quelle: vermutlich um 1800
C:Urheber unbekannt
C:Erstbeleg: vor 1767 (Datum in der schriftlichen Quelle)
C:Datum in der hier transkribierten schriftlichen Quelle: vermutlich um 1800
L:1/8
M:3/4
K:D
V:1 treble 
V:1
 D2 F2 A2 | Td4 (3def | fe e2 (3efg | gf f4 | D2 GDFA | Td4 (3def | edcBA^G | A6 :: Ta3 gfa | %9
 gf Te4 | Tg3 fge | fgaf d2 | b4 (3d'c'b | a2 bc' d'2 | (3bag f2 Te2 | d6 :| %16
[M:3/4]"^Trio" !fermata!A2 A2 A2 | B2 B2 B2 | g4 ec | dfaf d2 | A2 A2 A2 | B2 B2 B2 | g4 ec | d6 :: %24
 a2 f2 Tg2 | a2 f2 Tg2 | a2 bc'd'b | a2 Tg2 f2 | A2 A2 A2 | B2 B2 B2 | g4 ec | d6 :| %32

